X:1
T:E minor Daniel Read, 1794 (Revised 1804)
T:Issac Watts, 1719 (Psalm 17) 88. 88. 88. 88. (L.M.D.) 
T:Smithfield No copyright.  Transcribed from The Columbian Harmonist, 1807.
%%score [ 1 2 3 4 ]
L:1/8
M:4/4
K:G
V:1 treble nm="Treble" snm="Tr."
V:2 treble nm="Counter" snm="C."
V:3 treble-8 nm="Tenor" snm="T."
V:4 bass nm="Bass" snm="B."
V:1
 B4 B2 G2 | B2 B2 B2 e2 | ^d6 d2 | e2 B2 B2 d2 | A6 G2 | B8 | B4 B2 d2 | d2 B2 d2 d2 | d4 d4 | %9
w: |||||||||
 g2 d2 B2 d2 | (g3 f e2) d2 | B8 | z8 | z8 | z4 B4 | B2 B2 e2 e2 | f2 d2 B2 Bc | d2 B2 G2 GA | %18
w: |||||My|flesh shall slum- ber|in the ground, Till *|the last trum- pet's *|
 B6 GF | E6 z2 | z4 z2 G2 | A2 A2 A2 d2 | B2 B2 B2 B2 | B2 Bc d2 e2 | (d2 B4) A2 | d6 e2 | %26
w: joy- ful *|sound,|Then|burst the chains with|sweet sur- prise, And|in my * Sav- ior's|im- * age|rise. Then|
 f2 f2 f2 af | d2 B2 B4 | B4 (B4 | B2) G2 d2 d2 | B6 ^d2 | e8 |] %32
w: burst the chains with *|sweet sur- prise,|And in|* my Sav- ior's|im- age|rise.|
V:2
 E4 E2 E2 | G2 F2 G2 B2 | B6 B2 | G2 G2 G2 G2 | E6 GF | G8 | G4 F2 F2 | F2 E2 F2 F2 | F4 B4 | %9
w: This life's a|dream, an emp- ty|show, But|the bright world to|which I *|go|Hath joys sub-|stan- tial and sin-|cere; When|
 G2 G2 F2 F2 | (E3 F G2) D2 | E8 | z8 | z8 | z8 | z4 G4 | F2 F2 G2 D2 | B,2 B,2 B,2 D2 | %18
w: shall I wake and|find * * me|there?||||My|flesh shall slum- ber|in the ground, Till|
 G2 G2 G2 E2 | A6 G2 | F8- | F6 G2 | B2 B2 B2 B,2 | D2 D2 D2 E2 | F2 F2 F2 AF | D2 B,2 B,4 | %26
w: the last trum- pet's|joy- ful|sound|* Then|burst the chains with|sweet sur- prise, And|in my Sav- ior's *|im- age rise.|
 z4 z2 B,2 | E2 E2 E2 D2 | G2 G2 G2 G2 | E2 E2 A2 A2 | F6 [FB]2 | [GB]8 |] %32
w: Then|burst the chains with|sweet sur- prise, and|in my Sav- ior's|im- age|rise.|
V:3
 B4 B2 B2 | e2 d2 e2 g2 | f6 f2 | g2 e2 d2 B2 | (e3 f) e2 ^d2 | e8 | e4 d2 B2 | B2 G2 A2 A>B | %8
w: ||||||||
 A4 G4 | d2 d2 d2 A2 | (B3 A G2) F2 | E8 | z8 | z4 B4 | e2 e2 e2 de | f2 d2 B2 Bc | d2 B2 G2 GA | %17
w: |||||My|flesh shall slum- ber *|in the ground, Till *|the last trum- pet's *|
 B2 G2 E2 B2 | e2 e2 ef ed | e6 B2 | B8 | z8 | z4 d4 | d2 d2 d2 B2 | (A2 G2) (F2 E2) | B6 G2 | %26
w: joy- ful sound, Till|the last trum- * pet's *|joy- ful|sound.||Then|burst the chains with|sweet * sur- *|prise, Then|
 A2 A2 A2 d2 | B2 B2 B4 | B4 (e3 f | g2) B2 d2 A2 | (B3 e ^d2) gf | e8 |] %32
w: burst the chains with|sweet sur- prise,|and in *|* my Sav- ior's|im- * * age *|rise.|
V:4
 E,4 G,2 E,2 | E,2 B,,2 E,2 E,2 | B,6 B,2 | E,2 E,2 G,2 G,2 | A,6 B,2 | E,8 | E,4 B,,2 B,,2 | %7
w: |||||||
 B,,2 E,2 D,2 D,2 | D,4 G,4 | G,2 G,2 D,2 D,2 | (G,,3 A,,) B,,2 B,,2 | E,8 | z4 E,4 | %13
w: |||||My|
 B,2 B,2 B,2 G,2 | E,2 E,2 E,2 G,2 | D,2 D,2 E,2 E,2 | B,,6 D,2 | ([G,,-G,]8 | [G,,G,]6) G,2 | %19
w: flesh shall slum- ber|in the ground, Till|the last trum- pet's|joy- ful|sound|* Then|
 A,2 A,2 A,2 D2 | B,2 B,2 B,2 B,,2 | D,2 D,2 D,2 B,,2 | E,2 E,2 E,2 D,2 | G,2 G,2 B,2 G,2 | %24
w: burst the chains with|sweet sur- prise, And|in my Sav- ior's|im- age rise. And|in my Sav- ior's|
 D,6 E,2 | B,,6 G,2 | D,2 D,2 D,2 D,2 | E,2 E,2 E,4 | E,4 (E,4 | E,2) E,2 D,2 D,2 | [B,,B,]6 B,,2 | %31
w: im- age|rise. Then|burst the chains with|sweet sur- prise,|and in|* my Sav- ior's|im- age|
 E,8 |] %32
w: rise.|

